X:404
T: Verzweiflung (126a), S. 286
N: T0292V
O: Luxemburg
S: Singendes Volk, Esch-Alzette 1937 posth.]
N: Junglinster
R: Liebeslieder]
M: 4/4
L: 1/8
K: G
D2 | DBAGGFED | DBG2z2
D2 | DBAGGFED | DBG2z2
Bc | dBBBB2AB | c4z2
B2 | A2AAd2dc | B4z2

@@@ Tune index: 8458
